assets/svgs/no-lock-24.svg

<svg viewBox="0 0 24 24" xmlns="http://www.w3.org/2000/svg"><path d="m.5 23.5 23-23"/><path d="m3 18.2v-10.2h10.2l1-1h-8.2v-.8c0-2.8 2.6-5.2 5.5-5.2 2.3 0 4.4 1.5 5.2 3.5l.8-.8c-1-2.2-3.3-3.7-5.9-3.7-3.6 0-6.6 2.8-6.6 6.2v.8h-2.5c-.3 0-.5.2-.5.5v11.7z"/><path d="m20.5 7h-.7l-1 1h1.2v14h-15.2l-1 1h16.7c.3 0 .5-.2.5-.5v-15c0-.3-.2-.5-.5-.5z"/></svg>

<svg xmlns="http://www.w3.org/2000/svg" viewBox="0 0 24 24">
    <path d="M0.5,24c-0.1,0-0.3,0-0.4-0.1c-0.2-0.2-0.2-0.5,0-0.7l23-23c0.2-0.2,0.5-0.2,0.7,0s0.2,0.5,0,0.7l-23,23C0.8,24,0.6,24,0.5,24z"/>
    <path d="M3,18.2V8h10.2l1-1H6V6.2C6,3.4,8.6,1,11.5,1c2.3,0,4.4,1.5,5.2,3.5l0.8-0.8c-1-2.2-3.3-3.7-5.9-3.7C8,0,5,2.8,5,6.2V7H2.5C2.2,7,2,7.2,2,7.5v11.7L3,18.2z"/>
    <path d="M20.5,7h-0.7l-1,1H20v14H4.8l-1,1h16.7c0.3,0,0.5-0.2,0.5-0.5v-15C21,7.2,20.8,7,20.5,7z"/>
</svg>
